X:1
T:The man is blest that hath not lent
T:Uriah Davenport (of Rushton Spencer)
T:Text: Thomas Sternhold, on Ps. 1.
T:This edition by Edmund Gooch released into the public domain, January 2011. As such, it may be freely copied and performed.
T:The man is blest that hath not lent
T:PSALM I.
C:Uriah Davenport
C:(of Rushton Spencer)
Z:Text: Thomas Sternhold, on Ps. 1.
%%score [ 1 2 3 4 ]
L:1/8
M:3/2
K:C
V:1 treble nm="SOPRANO" snm="S."
V:2 treble nm="ALTO" snm="A."
V:3 treble-8 transpose=-12 nm="TENOR" snm="T."
V:4 bass nm="BASS" snm="B."
V:1
 z8 A4 | A8 (A2 ^G2) | (A4 B4) (c2 B2) | A8 (^G2 A2) | B8 z4 | z12 | z12 | z8 B4 | A8 A4 | G8 G4 | %10
w: He|shall be _|like _ a _|tree that _|is|||Which|in due|sea- son|
w: The|man is _|blest _ that _|hath not _|lent|||Nor|led his|life as|
w: But|in the _|law _ of _|God the _|Lord|||And|in the|same doth|
 (A4 B2 c2) (d2 c2) | B8 B4 | c8 c4 | A8 ^G4 | A12 |] %15
w: bring- * * eth _|forth Its|fruit a-|bun- dant-|ly:|
w: sin- * * ners _|do, Nor|sat in|scorn- er’s|chair.|
w: ex- * * er- *|cise Him-|self both|day and|night.|
V:2
 z12 | z12 | z12 | z12 | z8 E4 | C8 G4 | A8 F4 | E8 G4 | E8 F4 | D8 E4 | (C2 D2 E4) F4 | E8 E4 | %12
w: ||||Plant-|ed the|ri- vers|nigh, Which|in due|sea- son|bring- * * eth|forth Its|
w: ||||To|wick- ed|men his|ear; Nor|led his|life as|sin- * * ners|do, Nor|
w: ||||Doth|set his|whole de-|light, And|in the|same doth|ex- * * er-|cise Him-|
 (G3 F E3 D) C4 | F8 E4 | E12 |] %15
w: fruit _ _ _ a-|bun- dant-|ly:|
w: sat _ _ _ in|scorn- er’s|chair.|
w: self _ _ _ both|day and|night.|
V:3
 z8 (A3 B) | c8 d4 | (c4 B4) (e2 d2) | c8 (d2 c2) | B8 z4 | z12 | z12 | z8 (e2 d2) | c8 (d2 c2) | %9
w: He _|shall be|like _ a _|tree that _|is|||Which _|in due _|
w: The _|man is|blest _ that _|hath not _|lent|||Nor _|led his _|
w: But _|in the|law _ of _|God the _|Lord|||And _|in the _|
 B8 (c2 B2) | (A4 ^G4) A4 | E8 B4 | (e3 d c3 B) A4 | (d4 c4) B4 | A12 |] %15
w: sea- son _|bring- * eth|forth Its|fruit _ _ _ a-|bun- * dant-|ly:|
w: life as _|sin- * ners|do, Nor|sat _ _ _ in|scorn- * er’s|chair.|
w: same doth _|ex- * er-|cise Him-|self _ _ _ both|day _ and|night.|
V:4
 z12 | z12 | z12 | z12 | z8 E,4 | F,8 E,4 | (D,4 C,4) D,4 | E,8 E,4 | %8
w: ||||Plant-|ed the|ri- * vers|nigh, Which|
w: ||||To|wick- ed|men _ his|ear; Nor|
w: ||||Doth|set his|whole _ de-|light, And|
"^Emendations: Original clefs treble, alto, tenor and bass. The first stanza only of the text is given in the source:three further stanzas have been selected and underlaid editorially." A,8 D,4 | %9
w: in due|
w: led his|
w: in the|
 G,8 C,4 | (F,4 E,4) D,4 | E,8 E,4 | C,8 F,4 | D,8 E,4 | A,,12 |] %15
w: sea- son|bring- * eth|forth Its|fruit a-|bun- dant-|ly:|
w: life as|sin- * ners|do, Nor|sat in|scorn- er’s|chair.|
w: same doth|ex- * er-|cise Him-|self both|day and|night.|

